res/skins/LateNight/palemoon/style/mixxx_logo_small.svg

<?xml version="1.0" encoding="UTF-8" standalone="no"?>
<svg
   xmlns:dc="http://purl.org/dc/elements/1.1/"
   xmlns:cc="http://creativecommons.org/ns#"
   xmlns:rdf="http://www.w3.org/1999/02/22-rdf-syntax-ns#"
   xmlns:svg="http://www.w3.org/2000/svg"
   xmlns="http://www.w3.org/2000/svg"
   xmlns:xlink="http://www.w3.org/1999/xlink"
   id="svg85"
   version="1.1"
   height="24"
   width="74">
  <metadata
     id="metadata89">
    <rdf:RDF>
      <cc:Work
         rdf:about="">
        <dc:format>image/svg+xml</dc:format>
        <dc:type
           rdf:resource="http://purl.org/dc/dcmitype/StillImage" />
        <dc:title></dc:title>
      </cc:Work>
    </rdf:RDF>
  </metadata>
  <defs
     id="defs57">
    <linearGradient
       id="linearGradient902"
       x2="0"
       y1="0.028000001"
       y2="89.146004"
       gradientUnits="userSpaceOnUse">
      <stop
         stop-color="#ffd235"
         offset="0"
         id="stop898"
         style="stop-color:#ae8e1a;stop-opacity:1" />
      <stop
         stop-color="#feb30a"
         offset="1"
         id="stop900"
         style="stop-color:#af8119;stop-opacity:1" />
    </linearGradient>
    <linearGradient
       id="a-6"
       x2="0"
       y1="0.028000001"
       y2="89.146004"
       gradientUnits="userSpaceOnUse">
      <stop
         stop-color="#ffd235"
         offset="0"
         id="stop893" />
      <stop
         stop-color="#feb30a"
         offset="1"
         id="stop895" />
    </linearGradient>
    <linearGradient
       gradientUnits="userSpaceOnUse"
       gradientTransform="matrix(0.19912877,0,0,0.20002033,56.013392,3.0873529)"
       y2="88.766998"
       y1="-0.1462"
       x2="13.486"
       x1="74.992996"
       id="g">
      <stop
         id="stop2"
         offset=".478"
         stop-color="#39b549" />
      <stop
         id="stop4"
         offset="1"
         stop-color="#1a76bc" />
    </linearGradient>
    <linearGradient
       gradientUnits="userSpaceOnUse"
       gradientTransform="matrix(0.19912877,0,0,0.20002033,31.636499,3.0873529)"
       y2="88.766998"
       y1="-0.15009999"
       x2="13.488"
       x1="74.998001"
       id="f">
      <stop
         id="stop7"
         offset="0"
         stop-color="#381f1f" />
      <stop
         id="stop9"
         offset=".0017"
         stop-color="#3a1f20" />
      <stop
         id="stop11"
         offset=".0376"
         stop-color="#5b2825" />
      <stop
         id="stop13"
         offset=".0757"
         stop-color="#7c2f28" />
      <stop
         id="stop15"
         offset=".1173"
         stop-color="#9b2e28" />
      <stop
         id="stop17"
         offset=".1626"
         stop-color="#b62c28" />
      <stop
         id="stop19"
         offset=".2129"
         stop-color="#cc2626" />
      <stop
         id="stop21"
         offset=".271"
         stop-color="#dc2225" />
      <stop
         id="stop23"
         offset=".3438"
         stop-color="#e81f25" />
      <stop
         id="stop25"
         offset=".478"
         stop-color="#ed1b26" />
      <stop
         id="stop27"
         offset="1"
         stop-color="#f7921e" />
    </linearGradient>
    <linearGradient
       gradientUnits="userSpaceOnUse"
       gradientTransform="matrix(0.19912877,0,0,0.20002033,43.826283,3.0873529)"
       y2="88.765999"
       y1="-0.1471"
       x2="13.485"
       x1="74.991997"
       id="e">
      <stop
         id="stop30"
         offset="0"
         stop-color="#120e1e" />
      <stop
         id="stop32"
         offset=".0231"
         stop-color="#1b1426" />
      <stop
         id="stop34"
         offset=".1446"
         stop-color="#442349" />
      <stop
         id="stop36"
         offset=".2552"
         stop-color="#652866" />
      <stop
         id="stop38"
         offset=".3511"
         stop-color="#7c287b" />
      <stop
         id="stop40"
         offset=".4286"
         stop-color="#8b2589" />
      <stop
         id="stop42"
         offset=".478"
         stop-color="#91268f" />
      <stop
         id="stop44"
         offset="1"
         stop-color="#ed1b26" />
    </linearGradient>
    <linearGradient
       xlink:href="#a"
       gradientUnits="userSpaceOnUse"
       gradientTransform="matrix(0.4467,0,0,0.4487,0,0.01288623)"
       y2="89.146004"
       y1="0.028000001"
       x2="0"
       id="h" />
    <linearGradient
       xlink:href="#linearGradient902"
       gradientUnits="userSpaceOnUse"
       gradientTransform="matrix(0.19912877,0,0,0.20002033,30.399372,3.087294)"
       y2="89.146004"
       y1="0.028000001"
       x2="0"
       id="d-3" />
    <linearGradient
       gradientUnits="userSpaceOnUse"
       y2="89.146004"
       y1="0.028000001"
       x2="0"
       id="a-6-3">
      <stop
         id="stop47-7"
         offset="0"
         stop-color="#ffd235" />
      <stop
         id="stop49-5"
         offset="1"
         stop-color="#feb30a" />
    </linearGradient>
    <linearGradient
       xlink:href="#a-6-3"
       gradientUnits="userSpaceOnUse"
       gradientTransform="matrix(0.19912877,0,0,0.20002033,42.586053,3.087294)"
       y2="89.146004"
       y1="0.028000001"
       x2="0"
       id="c-3" />
    <linearGradient
       xlink:href="#a-6-3"
       gradientUnits="userSpaceOnUse"
       gradientTransform="matrix(0.19912877,0,0,0.20002033,54.774728,3.087294)"
       y2="89.146004"
       y1="0.028000001"
       x2="0"
       id="b-5" />
    <linearGradient
       xlink:href="#a-6-3"
       gradientUnits="userSpaceOnUse"
       gradientTransform="matrix(0.19912877,0,0,0.20002033,23.961539,3.087294)"
       y2="89.146004"
       y1="0.028000001"
       x2="0"
       id="i-6" />
    <linearGradient
       xlink:href="#a-6-3"
       gradientUnits="userSpaceOnUse"
       gradientTransform="matrix(0.19912877,0,0,0.20002033,1,3.087294)"
       y2="89.146004"
       y1="0.028000001"
       x2="0"
       id="h-2" />
    <linearGradient
       gradientUnits="userSpaceOnUse"
       gradientTransform="matrix(0.19912877,0,0,0.20002033,56.013392,3.0873525)"
       y2="88.766998"
       y1="-0.1462"
       x2="13.486"
       x1="74.992996"
       id="g-3">
      <stop
         id="stop2-6"
         offset=".478"
         stop-color="#39b549" />
      <stop
         id="stop4-0"
         offset="1"
         stop-color="#1a76bc" />
    </linearGradient>
    <linearGradient
       gradientUnits="userSpaceOnUse"
       gradientTransform="matrix(0.19912877,0,0,0.20002033,31.636499,3.0873525)"
       y2="88.766998"
       y1="-0.15009999"
       x2="13.488"
       x1="74.998001"
       id="f-6">
      <stop
         id="stop7-2"
         offset="0"
         stop-color="#381f1f" />
      <stop
         id="stop9-6"
         offset=".0017"
         stop-color="#3a1f20" />
      <stop
         id="stop11-1"
         offset=".0376"
         stop-color="#5b2825" />
      <stop
         id="stop13-8"
         offset=".0757"
         stop-color="#7c2f28" />
      <stop
         id="stop15-7"
         offset=".1173"
         stop-color="#9b2e28" />
      <stop
         id="stop17-9"
         offset=".1626"
         stop-color="#b62c28" />
      <stop
         id="stop19-2"
         offset=".2129"
         stop-color="#cc2626" />
      <stop
         id="stop21-0"
         offset=".271"
         stop-color="#dc2225" />
      <stop
         id="stop23-2"
         offset=".3438"
         stop-color="#e81f25" />
      <stop
         id="stop25-3"
         offset=".478"
         stop-color="#ed1b26" />
      <stop
         id="stop27-7"
         offset="1"
         stop-color="#f7921e" />
    </linearGradient>
    <linearGradient
       gradientUnits="userSpaceOnUse"
       gradientTransform="matrix(0.19912877,0,0,0.20002033,43.826283,3.0873525)"
       y2="88.765999"
       y1="-0.1471"
       x2="13.485"
       x1="74.991997"
       id="e-5">
      <stop
         id="stop30-9"
         offset="0"
         stop-color="#120e1e" />
      <stop
         id="stop32-2"
         offset=".0231"
         stop-color="#1b1426" />
      <stop
         id="stop34-2"
         offset=".1446"
         stop-color="#442349" />
      <stop
         id="stop36-8"
         offset=".2552"
         stop-color="#652866" />
      <stop
         id="stop38-9"
         offset=".3511"
         stop-color="#7c287b" />
      <stop
         id="stop40-7"
         offset=".4286"
         stop-color="#8b2589" />
      <stop
         id="stop42-3"
         offset=".478"
         stop-color="#91268f" />
      <stop
         id="stop44-6"
         offset="1"
         stop-color="#ed1b26" />
    </linearGradient>
    <linearGradient
       xlink:href="#linearGradient902"
       id="linearGradient914"
       x1="54.774727"
       y1="12"
       x2="72.324745"
       y2="12"
       gradientUnits="userSpaceOnUse" />
    <linearGradient
       xlink:href="#linearGradient902"
       id="linearGradient916"
       x1="42.586052"
       y1="12"
       x2="60.135872"
       y2="12"
       gradientUnits="userSpaceOnUse" />
    <linearGradient
       xlink:href="#linearGradient902"
       id="linearGradient918"
       x1="30.399372"
       y1="12"
       x2="47.947197"
       y2="12"
       gradientUnits="userSpaceOnUse" />
    <linearGradient
       xlink:href="#linearGradient902"
       id="linearGradient920"
       x1="23.961538"
       y1="12"
       x2="28.564402"
       y2="12"
       gradientUnits="userSpaceOnUse" />
    <linearGradient
       xlink:href="#linearGradient902"
       id="linearGradient922"
       x1="1"
       y1="12"
       x2="21.925844"
       y2="12"
       gradientUnits="userSpaceOnUse" />
  </defs>
  <g
     style="fill:none;stroke:#0f0f0f;stroke-opacity:1;stroke-width:1.5;stroke-miterlimit:4;stroke-dasharray:none;stroke-linejoin:round"
     id="g1121">
    <path
       d="M 54.77413,20.912646 66.942962,3.087344 h 5.378751 L 60.15511,20.912646 Z"
       id="path59-1"
       style="fill:none;stroke-width:1.5;stroke:#0f0f0f;stroke-opacity:1;stroke-miterlimit:4;stroke-dasharray:none;stroke-linejoin:round" />
    <path
       d="M 30.397238,20.912646 42.565178,3.087344 h 5.381871 L 35.780446,20.912646 Z"
       id="path61-2"
       style="fill:none;stroke-width:1.5;stroke:#0f0f0f;stroke-opacity:1;stroke-miterlimit:4;stroke-dasharray:none;stroke-linejoin:round" />
    <path
       d="M 42.587021,20.912646 54.755853,3.087344 H 60.13505 L 47.968001,20.912646 Z"
       id="path63-9"
       style="fill:none;stroke-width:1.5;stroke:#0f0f0f;stroke-opacity:1;stroke-miterlimit:4;stroke-dasharray:none;stroke-linejoin:round" />
  </g>
  <path
     style="fill:url(#g);stroke-width:0.44577742"
     id="path59"
     d="M 54.77413,20.912646 66.942962,3.0873444 h 5.378751 L 60.15511,20.912646 Z" />
  <path
     style="fill:url(#f);stroke-width:0.44577742"
     id="path61"
     d="M 30.397238,20.912646 42.565178,3.0873444 h 5.381871 L 35.780446,20.912646 Z" />
  <path
     style="fill:url(#e);stroke-width:0.44577742"
     id="path63"
     d="M 42.587021,20.912646 54.755853,3.0873444 H 60.13505 L 47.968001,20.912646 Z" />
  <g
     style="fill:none;stroke:#0f0f0f;stroke-width:3.36490798;stroke-miterlimit:4;stroke-dasharray:none;stroke-opacity:1;stroke-linejoin:round"
     id="g83"
     transform="matrix(0.44577742,0,0,0.44577742,1,3.0815493)">
    <path
       style="fill:none;stroke:#0f0f0f;stroke-width:3.36490798;stroke-miterlimit:4;stroke-dasharray:none;stroke-opacity:1;stroke-linejoin:round"
       id="path73"
       d="M 105.31533,40.000133 78.021962,0.01288623 H 65.950788 L 93.242371,40.000133 Z" />
    <path
       style="fill:none;stroke:#0f0f0f;stroke-width:3.36490798;stroke-miterlimit:4;stroke-dasharray:none;stroke-opacity:1;stroke-linejoin:round"
       id="path75"
       d="M 132.65784,40.000133 105.35956,0.01288623 H 93.288828 L 120.58666,40.000133 Z" />
    <path
       style="fill:none;stroke:#0f0f0f;stroke-width:3.36490798;stroke-miterlimit:4;stroke-dasharray:none;stroke-opacity:1;stroke-linejoin:round"
       id="path77"
       d="M 160.0008,40.000133 132.70251,0.01288623 H 120.63134 L 147.92962,40.000133 Z" />
    <path
       style="fill:none;fill-rule:evenodd;stroke:#0f0f0f;stroke-width:3.36490798;stroke-miterlimit:4;stroke-dasharray:none;stroke-opacity:1;stroke-linejoin:round"
       id="path79"
       d="M 51.508977,0.01288623 H 61.834448 V 40.000133 H 51.508977 Z" />
    <path
       style="fill:none;stroke:#0f0f0f;stroke-width:3.36490798;stroke-miterlimit:4;stroke-dasharray:none;stroke-opacity:1;stroke-linejoin:round"
       id="path81"
       d="M 10.124456,40.000133 V 16.583377 l 13.077589,19.939331 h 0.26668 L 36.682111,16.380565 V 40.000133 H 46.942363 V 0.01288623 H 35.812386 L 23.468725,19.951768 11.131317,0.01288623 H 0 V 40.000133 Z" />
  </g>
  <path
     style="fill:#ae8e1a;stroke-width:0.19957405;fill-opacity:1"
     d="M 47.947196,20.912706 35.780429,3.087294 h -5.381057 l 12.165972,17.825412 z"
     id="path73-1" />
  <path
     style="fill:#ae8e1a;stroke-width:0.19957405;fill-opacity:1"
     d="M 60.13587,20.912706 47.966913,3.087294 h -5.38086 L 54.75481,20.912706 Z"
     id="path75-2" />
  <path
     style="fill:#ae8e1a;stroke-width:0.19957405;fill-opacity:1"
     d="M 72.324744,20.912706 60.155783,3.087294 h -5.381055 l 12.168956,17.825412 z"
     id="path77-7" />
  <path
     style="fill:#ae8e1a;fill-rule:evenodd;stroke-width:0.19957405;fill-opacity:1"
     d="m 23.961539,3.087294 h 4.602862 v 17.825412 h -4.602862 z"
     id="path79-0" />
  <path
     style="fill:#ae8e1a;stroke-width:0.19957405;fill-opacity:1"
     d="M 5.5132539,20.912706 V 10.474045 l 5.8296941,8.888503 h 0.11888 l 5.890229,-8.978912 v 10.52907 h 4.573788 V 3.087294 H 16.964353 L 11.461828,11.975597 5.9620898,3.087294 H 1 v 17.825412 z"
     id="path81-9" />
</svg>

<svg width="74" height="24" version="1.1" xmlns="http://www.w3.org/2000/svg" xmlns:xlink="http://www.w3.org/1999/xlink">
  <defs>
    <linearGradient id="g" x1="74.993" x2="13.486" y1="-.1462" y2="88.767" gradientTransform="matrix(.199129 0 0 .20002 56.0134 3.08735)" gradientUnits="userSpaceOnUse">
      <stop stop-color="#39b549" offset=".478"/>
      <stop stop-color="#1a76bc" offset="1"/>
    </linearGradient>
    <linearGradient id="f" x1="74.998" x2="13.488" y1="-.1501" y2="88.767" gradientTransform="matrix(.199129 0 0 .20002 31.6365 3.08735)" gradientUnits="userSpaceOnUse">
      <stop stop-color="#381f1f" offset="0"/>
      <stop stop-color="#3a1f20" offset=".0017"/>
      <stop stop-color="#5b2825" offset=".0376"/>
      <stop stop-color="#7c2f28" offset=".0757"/>
      <stop stop-color="#9b2e28" offset=".1173"/>
      <stop stop-color="#b62c28" offset=".1626"/>
      <stop stop-color="#cc2626" offset=".2129"/>
      <stop stop-color="#dc2225" offset=".271"/>
      <stop stop-color="#e81f25" offset=".3438"/>
      <stop stop-color="#ed1b26" offset=".478"/>
      <stop stop-color="#f7921e" offset="1"/>
    </linearGradient>
    <linearGradient id="e" x1="74.992" x2="13.485" y1="-.1471" y2="88.766" gradientTransform="matrix(.199129 0 0 .20002 43.8263 3.08735)" gradientUnits="userSpaceOnUse">
      <stop stop-color="#120e1e" offset="0"/>
      <stop stop-color="#1b1426" offset=".0231"/>
      <stop stop-color="#442349" offset=".1446"/>
      <stop stop-color="#652866" offset=".2552"/>
      <stop stop-color="#7c287b" offset=".3511"/>
      <stop stop-color="#8b2589" offset=".4286"/>
      <stop stop-color="#91268f" offset=".478"/>
      <stop stop-color="#ed1b26" offset="1"/>
    </linearGradient>
  </defs>
  <g fill="none" stroke="#0f0f0f" stroke-linejoin="round" stroke-width="1.5">
    <path d="m54.7741 20.9126 12.1688-17.8253h5.37875l-12.1666 17.8253z"/>
    <path d="m30.3972 20.9126 12.1679-17.8253h5.38187l-12.1666 17.8253z"/>
    <path d="m42.587 20.9126 12.1688-17.8253h5.3792l-12.167 17.8253z"/>
  </g>
  <path d="m54.7741 20.9126 12.1688-17.8253h5.37875l-12.1666 17.8253z" fill="url(#g)" stroke-width=".445777"/>
  <path d="m30.3972 20.9126 12.1679-17.8253h5.38187l-12.1666 17.8253z" fill="url(#f)" stroke-width=".445777"/>
  <path d="m42.587 20.9126 12.1688-17.8253h5.3792l-12.167 17.8253z" fill="url(#e)" stroke-width=".445777"/>
  <g transform="matrix(.445777 0 0 .445777 1 3.08155)" fill="none" stroke="#0f0f0f" stroke-linejoin="round" stroke-width="3.36491">
    <path d="m105.315 40.0001-27.2934-39.9872h-12.0712l27.2916 39.9872z"/>
    <path d="m132.658 40.0001-27.2983-39.9872h-12.0707l27.2978 39.9872z"/>
    <path d="m160.001 40.0001-27.2983-39.9872h-12.0712l27.2983 39.9872z"/>
    <path d="m51.509 0.0128862h10.3255v39.9872h-10.3255z"/>
    <path d="m10.1245 40.0001v-23.4168l13.0776 19.9393h0.26668l13.2134-20.1421v23.6196h10.2603v-39.9872h-11.13l-12.3437 19.9389-12.3374-19.9389h-11.1313v39.9872z"/>
  </g>
  <g fill="#a89a8c" stroke-width=".199574">
    <path d="m47.9472 20.9127-12.1668-17.8254h-5.38106l12.166 17.8254z"/>
    <path d="m60.1359 20.9127-12.169-17.8254h-5.38086l12.1688 17.8254z"/>
    <path d="m72.3247 20.9127-12.169-17.8254h-5.38106l12.169 17.8254z"/>
    <path d="m23.9615 3.08729h4.60286v17.8254h-4.60286z" fill-rule="evenodd"/>
    <path d="m5.51325 20.9127v-10.4387l5.82969 8.8885h0.11888l5.89023-8.97891v10.5291h4.57379v-17.8254h-4.96149l-5.50252 8.8883-5.49974-8.8883h-4.96209v17.8254z"/>
  </g>
</svg>
